src/topics/icons/rollupjs.svg

<?xml version="1.0" encoding="UTF-8" standalone="no"?>
<svg width="256px" height="295px" viewBox="0 0 256 295" version="1.1" xmlns="http://www.w3.org/2000/svg" xmlns:xlink="http://www.w3.org/1999/xlink" preserveAspectRatio="xMidYMid">
    <g>
        <path d="M67.2905,146.2787 C66.7655,139.7197 65.9565,133.1167 65.1735,126.7307 C64.4035,120.4487 63.6075,113.9537 63.0965,107.5867 C62.0865,95.0137 59.2225,82.3897 54.3395,68.9947 C52.9825,65.2677 51.3795,61.6317 49.8295,58.1157 L49.6865,57.7927 C48.4715,55.0357 46.8395,51.4157 44.9905,47.8637 C44.4295,46.7857 43.7445,45.9057 43.1405,45.1297 C42.6675,44.5217 42.1785,43.8937 42.0385,43.5087 C41.4465,41.8777 40.6225,40.5427 39.5715,39.5067 C39.7025,39.4187 39.8335,39.3307 39.9645,39.2437 C41.7155,38.0697 43.3695,36.9617 45.0815,35.9947 C47.1245,34.8397 49.2165,33.7997 51.4305,32.6977 C52.9455,31.9437 54.4605,31.1897 55.9565,30.3997 C57.2125,29.7367 58.4165,29.0237 59.5815,28.3337 C61.5115,27.1917 63.3345,26.1137 65.1885,25.3687 C67.9705,24.2507 70.7415,23.0407 73.4205,21.8697 C80.3855,18.8257 86.9645,15.9507 94.0235,14.4327 C99.8935,13.1697 106.4255,12.1597 114.5815,11.2517 C117.5095,10.9257 120.5735,11.0777 123.8165,11.2387 C124.5015,11.2737 125.1865,11.3067 125.8685,11.3367 L126.8705,11.3777 C129.3345,11.4757 131.6625,11.5687 133.6775,12.1277 C139.1865,13.6577 144.1305,16.0967 148.7955,19.5857 C154.1605,23.5947 157.5055,29.0817 159.0185,36.3607 C159.8275,40.2437 159.8425,44.3887 159.8585,48.7767 C159.8625,50.2217 159.8675,51.6647 159.9015,53.0937 C159.9335,54.5597 159.7155,56.1507 159.4845,57.8347 C159.4105,58.3747 159.3365,58.9147 159.2705,59.4507 C159.1305,60.5737 159.0185,61.7057 158.9075,62.8377 C158.6455,65.4907 158.3985,67.9957 157.7835,70.2987 C154.8235,81.3207 148.0695,90.8927 141.5385,100.1477 C138.8085,104.0127 135.5805,107.5177 132.1635,111.2297 C130.4655,113.0747 128.7085,114.9817 127.0255,116.9317 C120.7065,124.2517 113.3975,130.5197 105.8365,136.8267 C105.0265,137.5027 104.2845,138.1957 103.5675,138.8667 C102.7165,139.6617 101.9135,140.4117 101.0985,141.0387 C99.0045,142.6477 96.7945,144.2347 94.6565,145.7697 C93.6835,146.4687 92.7105,147.1667 91.7405,147.8727 C90.8595,148.5137 89.9885,149.1687 89.1175,149.8237 C87.2635,151.2167 85.5135,152.5327 83.6855,153.7117 C79.2605,156.5637 74.6865,159.3887 70.2635,162.1187 C69.3015,162.7127 68.3395,163.3067 67.3785,163.9007 C67.3925,163.4257 67.4055,162.9537 67.4185,162.4847 C67.5705,157.1937 67.7265,151.7237 67.2905,146.2787 M255.7225,214.2747 C255.5535,212.4657 255.4875,210.6327 255.4175,208.6937 C255.2305,203.4997 255.0365,198.1287 252.8155,192.7887 C252.5665,192.1877 252.3195,191.5847 252.0725,190.9797 C250.7325,187.6977 249.3455,184.3047 247.3355,181.1547 C245.4695,178.2357 243.1445,175.7797 240.8955,173.4027 C240.3465,172.8227 239.7985,172.2437 239.2605,171.6617 C237.3205,169.5537 235.3145,167.3747 232.8395,165.5597 C231.4455,164.5417 230.0145,163.7997 228.6285,163.0837 C227.4185,162.4577 226.2745,161.8647 225.3775,161.1867 C222.3995,158.9257 219.1875,158.1667 216.3545,157.4977 L215.7285,157.3487 C213.5165,156.8217 210.5795,156.2297 207.5185,156.3087 C198.4195,156.5507 191.8715,161.7947 187.6865,165.7687 C186.2865,167.0957 184.5445,168.7477 183.6545,171.0457 L183.0185,172.6737 C180.7235,178.5237 178.3495,184.5737 178.2655,191.4827 C178.2495,192.8917 178.1805,194.3007 178.1075,195.7927 C177.8275,201.5077 177.5115,207.9837 180.5245,214.1747 C180.5605,214.2777 180.6205,214.5817 180.6635,214.8037 L180.7015,214.9967 C182.0775,221.9267 185.2675,231.6517 197.0535,236.0587 C203.6215,238.5157 209.8025,238.5977 215.9465,236.3057 C216.1895,236.2147 216.5715,236.1197 216.9735,236.0197 C218.3165,235.6857 220.1545,235.2277 221.5945,233.7607 C222.3495,232.9957 223.1585,232.2567 224.0155,231.4727 C226.2965,229.3897 228.8805,227.0277 230.7405,223.7507 C233.4475,218.9787 236.6185,211.6697 232.9025,203.3117 C231.1075,199.2757 228.6565,195.6247 226.4975,192.5877 C225.2115,190.7757 223.2135,189.1537 220.5615,187.7657 C218.6485,186.7647 216.6155,186.1827 214.8225,185.6697 L213.8485,185.3887 C209.2205,184.0247 203.6865,186.0937 201.5185,189.9987 C199.9325,192.8527 198.7125,195.9277 197.9895,198.8847 C197.3285,201.5757 198.6255,205.1997 200.8775,206.9617 C204.3675,209.7007 208.7865,210.6437 213.3175,209.6197 C214.7645,209.2927 215.6815,208.4427 216.2885,207.8807 C216.4165,207.7627 216.5515,207.6307 216.7125,207.5047 C217.9755,206.5147 218.5445,204.8787 218.1705,203.3187 C217.7965,201.7577 216.5465,200.5577 214.9725,200.2477 C214.0405,200.0647 213.1595,199.8977 212.3165,199.7387 C210.9145,199.4727 209.6685,199.2377 208.4595,198.9767 C208.5455,198.6357 208.6255,198.2937 208.7045,197.9507 L208.7335,197.8237 C208.8855,197.1737 209.6535,196.2027 210.1785,195.8517 C211.8735,196.0307 213.7185,196.4517 215.7985,197.1337 C216.9145,197.5007 217.7585,198.5457 219.0435,200.2207 C219.6945,201.0687 220.3685,201.9457 221.1855,202.8027 C224.5805,206.3687 225.0775,214.2907 222.1365,217.9417 C221.8165,218.3367 221.4975,218.7407 221.1765,219.1447 C219.4025,221.3827 217.5685,223.6967 215.5765,224.9077 C213.5565,226.1397 210.5455,226.9657 206.8675,227.2997 C205.9115,227.3857 204.5565,227.0177 203.1235,226.6267 C201.9915,226.3167 200.8205,225.9967 199.5505,225.8047 C197.1915,225.4467 195.4625,224.0027 193.3835,220.6547 C190.2895,215.6767 189.1115,209.4187 188.0735,203.8987 C187.4265,200.4597 187.5215,196.3187 188.3735,190.8677 C188.8155,188.0497 189.7475,185.2227 190.7355,182.2307 C191.2365,180.7097 191.7555,179.1377 192.2135,177.5427 C193.5975,172.7337 197.1105,169.8157 204.3375,167.4707 C209.1965,165.8967 214.4745,166.9487 220.4715,170.6897 C220.8195,170.9067 221.1635,171.1347 221.5085,171.3627 C222.6245,172.1007 223.8905,172.9377 225.3775,173.5417 C228.4005,174.7737 230.8505,176.8467 233.0855,180.0617 C233.2305,180.2707 233.3665,180.4887 233.5035,180.7067 C233.9805,181.4627 234.5735,182.4037 235.4705,183.2547 C240.1345,187.6787 243.1215,193.6147 244.8685,201.9287 C245.1555,203.3077 245.2865,204.7977 245.4265,206.3747 L245.5045,207.2317 C245.5685,207.9257 245.6375,208.6187 245.7075,209.3127 C245.9545,211.7927 246.1875,214.1357 246.2225,216.4607 C246.2395,217.6377 246.0995,218.9067 245.9505,220.2507 C245.8245,221.3967 245.6935,222.5827 245.6455,223.8247 C245.4195,229.7667 244.5435,234.6177 242.8895,239.0917 C240.8665,244.5497 238.5895,248.8817 235.7225,252.7217 C229.2995,261.3237 222.1385,264.9867 213.1905,264.2577 L212.2895,264.1807 C210.3075,264.0107 208.2645,263.8347 206.1255,263.9267 C202.5845,264.0747 199.4115,264.1027 196.4805,262.9457 C188.9325,259.9667 183.9015,256.6347 180.1685,252.1427 C178.3015,249.8927 176.4655,247.2787 174.5545,244.1517 L174.0135,243.2697 C172.1175,240.1767 170.3265,237.2547 169.1495,234.1977 C166.9225,228.4117 164.9935,222.4127 163.4135,216.3657 C162.2085,211.7527 160.0895,207.7797 158.0425,203.9377 C157.2895,202.5267 156.5795,201.1947 155.9125,199.8317 C153.7945,195.5087 151.0835,191.5117 148.0735,188.2747 C143.4055,183.2587 137.7785,178.5097 130.3635,173.3307 C120.7105,166.5907 110.5015,163.3137 99.1515,163.3137 L99.0735,163.3137 C98.6675,163.3137 98.1685,163.2607 97.6405,163.2047 C97.3365,163.1727 97.0325,163.1407 96.7285,163.1147 C95.5685,163.0167 94.4045,162.8707 93.1725,162.7157 C91.7905,162.5417 90.3925,162.3657 88.9675,162.2537 C91.6365,160.4947 94.3105,158.6917 96.9235,156.8287 C109.7345,147.6977 120.1415,138.7447 128.7395,129.4567 C136.0745,121.5337 143.1395,113.1807 149.9715,105.1017 L152.5915,102.0047 C153.7865,100.5947 154.6365,99.0407 155.3865,97.6697 C155.9545,96.6317 156.4895,95.6527 157.0845,94.8917 C162.2875,88.2227 164.8785,80.5797 167.3835,73.1877 L167.5285,72.7597 C169.2625,67.6417 169.7315,62.1337 169.9815,56.9407 C170.2795,50.6067 170.1915,43.9097 169.7195,37.0377 C169.1555,28.7947 165.6265,21.0827 159.5135,14.7317 C155.0135,10.0607 149.8635,6.5297 144.2065,4.2367 C140.9175,2.9047 137.3985,1.5647 133.7105,1.0857 C130.6565,0.6907 127.6475,0.7227 124.7325,0.7517 C123.3845,0.7657 122.1135,0.7787 120.8405,0.7527 C120.0315,0.7357 119.1825,0.6697 118.2845,0.5997 C116.4055,0.4517 114.2745,0.2857 112.1065,0.5837 L111.2025,0.7067 C102.3235,1.9197 93.1415,3.1727 84.3225,6.4387 C82.9045,6.9637 81.5875,7.5827 80.3135,8.1807 C79.3385,8.6387 78.4175,9.0707 77.5005,9.4397 C75.8945,10.0867 74.2155,10.7107 72.5915,11.3137 C69.5945,12.4287 66.4945,13.5807 63.4845,14.9977 C60.4605,16.4217 57.5055,17.9997 54.6465,19.5257 C51.3695,21.2747 48.2735,22.9277 45.0495,24.3887 C39.4055,26.9477 34.4385,30.3717 29.6345,33.6827 C28.1315,34.7187 26.6275,35.7547 25.1055,36.7627 C18.0905,41.4077 10.8355,46.2097 3.7115,51.1717 C1.9285,52.4137 1.2035,54.2797 0.6735,55.6417 C0.5715,55.9037 0.4725,56.1647 0.3555,56.4237 C-0.2075,57.6837 -0.2485,59.5937 1.3255,61.1747 C3.0895,62.9487 5.1495,63.5027 6.9745,62.7007 C8.4785,62.0387 10.0685,61.2667 11.4965,60.1057 C12.7935,59.0507 14.0285,57.9497 15.2225,56.8847 C16.2185,55.9967 17.1645,55.1537 18.1325,54.3447 C18.1795,54.3297 18.2275,54.3147 18.2755,54.2997 C18.8895,54.0997 19.8175,53.7987 20.7175,53.1007 C22.4265,51.7757 24.1145,50.4237 25.8015,49.0707 C27.0935,48.0347 28.4145,46.9767 29.7415,45.9347 C31.2275,47.7797 32.6335,49.5277 34.0305,51.2807 C34.2235,51.5247 34.4255,51.7647 34.6275,52.0047 C34.9795,52.4237 35.3785,52.8977 35.4975,53.1527 C38.3885,59.3487 40.7925,64.5727 43.1235,69.9277 C47.3635,79.6637 51.2345,89.2627 52.0155,99.6447 C52.2525,102.7897 52.7115,105.8957 53.1555,108.8987 C53.4425,110.8467 53.7405,112.8607 53.9645,114.8147 C54.2605,117.3987 54.5095,120.0547 54.7495,122.6227 C55.0055,125.3497 55.2695,128.1707 55.5945,130.9607 C55.8005,132.7217 56.0935,134.4507 56.3775,136.1227 C56.7955,138.5867 57.1905,140.9137 57.2945,143.1987 C57.6705,151.4367 57.6945,159.8687 57.7175,168.0867 C57.7185,168.4367 57.7385,168.8057 57.7625,169.1807 C57.7645,169.2177 57.7675,169.2567 57.7695,169.2977 C55.2655,170.8647 55.9645,174.1137 56.2805,175.5797 C56.4085,176.1717 56.5725,176.7027 56.7175,177.1727 C56.8265,177.5237 56.9905,178.0547 57.0015,178.2267 C57.0045,178.8497 56.8655,179.6347 56.7195,180.4667 C56.6065,181.1027 56.4965,181.7397 56.4215,182.3797 C55.9425,186.4297 55.4905,190.4797 55.0425,194.5337 C54.9605,195.2727 54.8955,196.0147 54.8315,196.7557 C54.7795,197.3457 54.7285,197.9347 54.6665,198.5257 C54.5895,199.2677 54.5085,199.8507 54.4115,200.3577 C54.3345,200.7637 54.2405,201.1677 54.1475,201.5717 C53.9755,202.3187 53.7805,203.1637 53.6575,204.0667 C53.5135,205.1387 53.3955,206.2147 53.2795,207.2907 C53.1225,208.7417 52.9735,210.1127 52.7655,211.4097 C52.7355,211.5227 52.5995,211.8327 52.4995,212.0597 C52.2155,212.7037 51.8625,213.5057 51.6775,214.4997 C51.3205,216.4167 51.0025,218.3527 50.6945,220.2257 C50.1975,223.2537 49.7285,226.1137 49.0965,228.9657 C48.2045,233.0057 47.0375,237.1167 45.9095,241.0937 L45.2715,243.3457 C43.2595,250.5007 41.1565,257.8217 38.8445,265.7247 C37.9185,268.8907 36.9755,272.0507 36.0325,275.2117 C34.8175,279.2777 33.6045,283.3447 32.4285,287.4187 C32.0045,288.8827 32.2845,290.2007 32.4515,290.9887 C32.4785,291.1157 32.5105,291.2417 32.5265,291.3637 C32.7025,292.8817 33.7025,294.1777 35.1285,294.7257 C35.6075,294.9097 36.1075,294.9997 36.6025,294.9997 C37.5825,294.9997 38.5485,294.6477 39.3095,293.9787 C39.4135,293.8917 39.5345,293.8137 39.6525,293.7317 C40.4495,293.1737 41.7835,292.2407 42.3875,290.4947 C43.7945,286.4297 45.0215,282.3427 46.0355,278.8807 C46.4635,277.4207 46.8965,275.9617 47.3285,274.5017 C48.8285,269.4437 50.3785,264.2117 51.7165,258.9797 C54.4425,248.3177 57.2625,237.2927 59.6225,226.2547 C61.4015,217.9257 62.9815,208.9357 64.5945,197.9617 C65.2855,193.2577 65.6985,188.4947 66.0985,183.8897 C66.2755,181.8497 66.4535,179.8087 66.6535,177.7737 C67.2015,177.6427 67.7725,177.4457 68.3395,177.1307 C74.5185,173.7407 81.0685,172.3057 88.3555,172.7367 C91.5295,172.9247 94.8885,173.2277 98.9265,173.6887 C99.7855,173.7867 100.6495,173.8727 101.5135,173.9587 C104.3245,174.2407 106.9795,174.5057 109.4385,175.1587 C115.9065,176.8767 122.0475,179.9417 127.6905,184.2687 C131.6195,187.2827 134.6595,189.8477 137.2555,192.3407 C140.2565,195.2237 142.3955,197.6807 143.9895,200.0717 C145.3835,202.1637 146.5105,204.5207 147.7035,207.0157 C148.2245,208.1067 148.7465,209.1967 149.2915,210.2677 C149.6535,210.9837 150.0355,211.6927 150.4185,212.4007 C151.2765,213.9897 152.0865,215.4917 152.6025,216.9697 C153.1005,218.3977 153.4765,219.9257 153.8745,221.5437 C154.4285,223.7967 155.0015,226.1257 155.9675,228.4237 C156.7105,230.1967 157.3715,231.9987 158.0705,233.9067 C160.1555,239.5927 162.3115,245.4727 166.7515,250.5747 C167.7625,251.7337 168.6495,253.1527 169.5885,254.6537 C170.4225,255.9867 171.2845,257.3637 172.3175,258.7007 C177.0325,264.8087 183.6715,268.0537 189.5265,270.9157 C194.0315,273.1187 200.0955,275.4967 207.0935,274.2937 C207.6255,274.2037 208.5275,274.3137 209.4855,274.4327 C222.8065,276.0997 233.7355,271.7417 241.9695,261.4907 C247.0605,255.1497 250.5785,248.5677 252.7265,241.3687 C255.5595,231.8747 256.5385,223.0127 255.7225,214.2747" fill="#E94C43"></path>
    </g>
</svg>

<svg height="295" preserveAspectRatio="xMidYMid" viewBox="0 0 256 295" width="256" xmlns="http://www.w3.org/2000/svg"><path d="m67.2905 146.2787c-.525-6.559-1.334-13.162-2.117-19.548-.77-6.282-1.566-12.777-2.077-19.144-1.01-12.573-3.874-25.197-8.757-38.592-1.357-3.727-2.96-7.363-4.51-10.879l-.143-.323c-1.215-2.757-2.847-6.377-4.696-9.929-.561-1.078-1.246-1.958-1.85-2.734-.473-.608-.962-1.236-1.102-1.621-.592-1.631-1.416-2.966-2.467-4.002.131-.088.262-.176.393-.263 1.751-1.174 3.405-2.282 5.117-3.249 2.043-1.155 4.135-2.195 6.349-3.297 1.515-.754 3.03-1.508 4.526-2.298 1.256-.663 2.46-1.376 3.625-2.066 1.93-1.142 3.753-2.22 5.607-2.965 2.782-1.118 5.553-2.328 8.232-3.499 6.965-3.044 13.544-5.919 20.603-7.437 5.87-1.263 12.402-2.273 20.558-3.181 2.928-.326 5.992-.174 9.235-.013.685.035 1.37.068 2.052.098l1.002.041c2.464.098 4.792.191 6.807.75 5.509 1.53 10.453 3.969 15.118 7.458 5.365 4.009 8.71 9.496 10.223 16.775.809 3.883.824 8.028.84 12.416.004 1.445.009 2.888.043 4.317.032 1.466-.186 3.057-.417 4.741-.074.54-.148 1.08-.214 1.616-.14 1.123-.252 2.255-.363 3.387-.262 2.653-.509 5.158-1.124 7.461-2.96 11.022-9.714 20.594-16.245 29.849-2.73 3.865-5.958 7.37-9.375 11.082-1.698 1.845-3.455 3.752-5.138 5.702-6.319 7.32-13.628 13.588-21.189 19.895-.81.676-1.552 1.369-2.269 2.04-.851.795-1.654 1.545-2.469 2.172-2.094 1.609-4.304 3.196-6.442 4.731-.973.699-1.946 1.397-2.916 2.103-.881.641-1.752 1.296-2.623 1.951-1.854 1.393-3.604 2.709-5.432 3.888-4.425 2.852-8.999 5.677-13.422 8.407-.962.594-1.924 1.188-2.885 1.782.014-.475.027-.947.04-1.416.152-5.291.308-10.761-.128-16.206m188.432 67.996c-.169-1.809-.235-3.642-.305-5.581-.187-5.194-.381-10.565-2.602-15.905-.249-.601-.496-1.204-.743-1.809-1.34-3.282-2.727-6.675-4.737-9.825-1.866-2.919-4.191-5.375-6.44-7.752-.549-.58-1.097-1.159-1.635-1.741-1.94-2.108-3.946-4.287-6.421-6.102-1.394-1.018-2.825-1.76-4.211-2.476-1.21-.626-2.354-1.219-3.251-1.897-2.978-2.261-6.19-3.02-9.023-3.689l-.626-.149c-2.212-.527-5.149-1.119-8.21-1.04-9.099.242-15.647 5.486-19.832 9.46-1.4 1.327-3.142 2.979-4.032 5.277l-.636 1.628c-2.295 5.85-4.669 11.9-4.753 18.809-.016 1.409-.085 2.818-.158 4.31-.28 5.715-.596 12.191 2.417 18.382.036.103.096.407.139.629l.038.193c1.376 6.93 4.566 16.655 16.352 21.062 6.568 2.457 12.749 2.539 18.893.247.243-.091.625-.186 1.027-.286 1.343-.334 3.181-.792 4.621-2.259.755-.765 1.564-1.504 2.421-2.288 2.281-2.083 4.865-4.445 6.725-7.722 2.707-4.772 5.878-12.081 2.162-20.439-1.795-4.036-4.246-7.687-6.405-10.724-1.286-1.812-3.284-3.434-5.936-4.822-1.913-1.001-3.946-1.583-5.739-2.096l-.974-.281c-4.628-1.364-10.162.705-12.33 4.61-1.586 2.854-2.806 5.929-3.529 8.886-.661 2.691.636 6.315 2.888 8.077 3.49 2.739 7.909 3.682 12.44 2.658 1.447-.327 2.364-1.177 2.971-1.739.128-.118.263-.25.424-.376 1.263-.99 1.832-2.626 1.458-4.186-.374-1.561-1.624-2.761-3.198-3.071-.932-.183-1.813-.35-2.656-.509-1.402-.266-2.648-.501-3.857-.762.086-.341.166-.683.245-1.026l.029-.127c.152-.65.92-1.621 1.445-1.972 1.695.179 3.54.6 5.62 1.282 1.116.367 1.96 1.412 3.245 3.087.651.848 1.325 1.725 2.142 2.582 3.395 3.566 3.892 11.488.951 15.139-.32.395-.639.799-.96 1.203-1.774 2.238-3.608 4.552-5.6 5.763-2.02 1.232-5.031 2.058-8.709 2.392-.956.086-2.311-.282-3.744-.673-1.132-.31-2.303-.63-3.573-.822-2.359-.358-4.088-1.802-6.167-5.15-3.094-4.978-4.272-11.236-5.31-16.756-.647-3.439-.552-7.58.3-13.031.442-2.818 1.374-5.645 2.362-8.637.501-1.521 1.02-3.093 1.478-4.688 1.384-4.809 4.897-7.727 12.124-10.072 4.859-1.574 10.137-.522 16.134 3.219.348.217.692.445 1.037.673 1.116.738 2.382 1.575 3.869 2.179 3.023 1.232 5.473 3.305 7.708 6.52.145.209.281.427.418.645.477.756 1.07 1.697 1.967 2.548 4.664 4.424 7.651 10.36 9.398 18.674.287 1.379.418 2.869.558 4.446l.078.857c.064.694.133 1.387.203 2.081.247 2.48.48 4.823.515 7.148.017 1.177-.123 2.446-.272 3.79-.126 1.146-.257 2.332-.305 3.574-.226 5.942-1.102 10.793-2.756 15.267-2.023 5.458-4.3 9.79-7.167 13.63-6.423 8.602-13.584 12.265-22.532 11.536l-.901-.077c-1.982-.17-4.025-.346-6.164-.254-3.541.148-6.714.176-9.645-.981-7.548-2.979-12.579-6.311-16.312-10.803-1.867-2.25-3.703-4.864-5.614-7.991l-.541-.882c-1.896-3.093-3.687-6.015-4.864-9.072-2.227-5.786-4.156-11.785-5.736-17.832-1.205-4.613-3.324-8.586-5.371-12.428-.753-1.411-1.463-2.743-2.13-4.106-2.118-4.323-4.829-8.32-7.839-11.557-4.668-5.016-10.295-9.765-17.71-14.944-9.653-6.74-19.862-10.017-31.212-10.017h-.078c-.406 0-.905-.053-1.433-.109-.304-.032-.608-.064-.912-.09-1.16-.098-2.324-.244-3.556-.399-1.382-.174-2.78-.35-4.205-.462 2.669-1.759 5.343-3.562 7.956-5.425 12.811-9.131 23.218-18.084 31.816-27.372 7.335-7.923 14.4-16.276 21.232-24.355l2.62-3.097c1.195-1.41 2.045-2.964 2.795-4.335.568-1.038 1.103-2.017 1.698-2.778 5.203-6.669 7.794-14.312 10.299-21.704l.145-.428c1.734-5.118 2.203-10.626 2.453-15.819.298-6.334.21-13.031-.262-19.903-.564-8.243-4.093-15.955-10.206-22.306-4.5-4.671-9.65-8.202-15.307-10.495-3.289-1.332-6.808-2.672-10.496-3.151-3.054-.395-6.063-.363-8.978-.334-1.348.014-2.619.027-3.892.001-.809-.017-1.658-.083-2.556-.153-1.879-.148-4.01-.314-6.178-.016l-.904.123c-8.879 1.213-18.061 2.466-26.88 5.732-1.418.525-2.735 1.144-4.009 1.742-.975.458-1.896.89-2.813 1.259-1.606.647-3.285 1.271-4.909 1.874-2.997 1.115-6.097 2.267-9.107 3.684-3.024 1.424-5.979 3.002-8.838 4.528-3.277 1.749-6.373 3.402-9.597 4.863-5.644 2.559-10.611 5.983-15.415 9.294-1.503 1.036-3.007 2.072-4.529 3.08-7.015 4.645-14.27 9.447-21.394 14.409-1.783 1.242-2.508 3.108-3.038 4.47-.102.262-.201.523-.318.782-.563 1.26-.604 3.17.97 4.751 1.764 1.774 3.824 2.328 5.649 1.526 1.504-.662 3.094-1.434 4.522-2.595 1.297-1.055 2.532-2.156 3.726-3.221.996-.888 1.942-1.731 2.91-2.54.047-.015.095-.03.143-.045.614-.2 1.542-.501 2.442-1.199 1.709-1.325 3.397-2.677 5.084-4.03 1.292-1.036 2.613-2.094 3.94-3.136 1.486 1.845 2.892 3.593 4.289 5.346.193.244.395.484.597.724.352.419.751.893.87 1.148 2.891 6.196 5.295 11.42 7.626 16.775 4.24 9.736 8.111 19.335 8.892 29.717.237 3.145.696 6.251 1.14 9.254.287 1.948.585 3.962.809 5.916.296 2.584.545 5.24.785 7.808.256 2.727.52 5.548.845 8.338.206 1.761.499 3.49.783 5.162.418 2.464.813 4.791.917 7.076.376 8.238.4 16.67.423 24.888.001.35.021.719.045 1.094.002.037.005.076.007.117-2.504 1.567-1.805 4.816-1.489 6.282.128.592.292 1.123.437 1.593.109.351.273.882.284 1.054.003.623-.136 1.408-.282 2.24-.113.636-.223 1.273-.298 1.913-.479 4.05-.931 8.1-1.379 12.154-.082.739-.147 1.481-.211 2.222-.052.59-.103 1.179-.165 1.77-.077.742-.158 1.325-.255 1.832-.077.406-.171.81-.264 1.214-.172.747-.367 1.592-.49 2.495-.144 1.072-.262 2.148-.378 3.224-.157 1.451-.306 2.822-.514 4.119-.03.113-.166.423-.266.65-.284.644-.637 1.446-.822 2.44-.357 1.917-.675 3.853-.983 5.726-.497 3.028-.966 5.888-1.598 8.74-.892 4.04-2.059 8.151-3.187 12.128l-.638 2.252c-2.012 7.155-4.115 14.476-6.427 22.379-.926 3.166-1.869 6.326-2.812 9.487-1.215 4.066-2.428 8.133-3.604 12.207-.424 1.464-.144 2.782.023 3.57.027.127.059.253.075.375.176 1.518 1.176 2.814 2.602 3.362.479.184.979.274 1.474.274.98 0 1.946-.352 2.707-1.021.104-.087.225-.165.343-.247.797-.558 2.131-1.491 2.735-3.237 1.407-4.065 2.634-8.152 3.648-11.614.428-1.46.861-2.919 1.293-4.379 1.5-5.058 3.05-10.29 4.388-15.522 2.726-10.662 5.546-21.687 7.906-32.725 1.779-8.329 3.359-17.319 4.972-28.293.691-4.704 1.104-9.467 1.504-14.072.177-2.04.355-4.081.555-6.116.548-.131 1.119-.328 1.686-.643 6.179-3.39 12.729-4.825 20.016-4.394 3.174.188 6.533.491 10.571.952.859.098 1.723.184 2.587.27 2.811.282 5.466.547 7.925 1.2 6.468 1.718 12.609 4.783 18.252 9.11 3.929 3.014 6.969 5.579 9.565 8.072 3.001 2.883 5.14 5.34 6.734 7.731 1.394 2.092 2.521 4.449 3.714 6.944.521 1.091 1.043 2.181 1.588 3.252.362.716.744 1.425 1.127 2.133.858 1.589 1.668 3.091 2.184 4.569.498 1.428.874 2.956 1.272 4.574.554 2.253 1.127 4.582 2.093 6.88.743 1.773 1.404 3.575 2.103 5.483 2.085 5.686 4.241 11.566 8.681 16.668 1.011 1.159 1.898 2.578 2.837 4.079.834 1.333 1.696 2.71 2.729 4.047 4.715 6.108 11.354 9.353 17.209 12.215 4.505 2.203 10.569 4.581 17.567 3.378.532-.09 1.434.02 2.392.139 13.321 1.667 24.25-2.691 32.484-12.942 5.091-6.341 8.609-12.923 10.757-20.122 2.833-9.494 3.812-18.356 2.996-27.094" fill="#e94c43"/></svg>
